X: 5
T:The Happy Man - Adderbury
S:OY(AB)6
N:Tune as played for Grand Union Morris
N:www.grandunionmorris.co.uk
M:3/4
L:1/4
Q:120
K:G
"A"D | G G A | B2 A | B B ^c | d2 d | B B B | A A d | B B B | A A d/2d/2
 | d e ^c | d2||
"B"d/2c/2 | B A G | d2 G/2F/2 | E c/2B/2 A/2G/2 | G F D/2D/2 | G G/2A/2
B/2c/2 | A2 c/2B/2 | A G F | G2||
